X:213 
T:Top of the Morning (reel)
F:file ID: cre.5/213top_m
B:CRE5.181 (Mora Duit ar Maidin)
M:4/4
Q:180
R:reel
K:G
GF|:DGBG FGAc|BGGB ABcA|d2cA BGEG|1 BdcA BGAF:|\
[2 BdcA G3||
z|g2ge fdd2|eaag fdcd|g2ge fdd2|defd g3z|
gage fddd|BGGB ABcA|d2cA BGFG|BdcA HG4|]


%%%

